X:37
T:Brendan Begley's                                                                                  
M:6/8                                                                                               
L:1/8                                                                                               
K:G                                                                                                 
B|ded BGB|dBG A2 A|ded BGB|dBG G2 B| ded BGB|dBG G2 g|                                              
f/g/af gfe|1 dBG G2 :|2 dBG G || Bd |:eAA fAA|edB GBd|eAA g2 e|                                     
dBG GBd| eAA fAA|edB A2 g|f/g/af gfe|1 dBG GBd :|2dBG G3 |>|
